dist/img/hand_3.svg

<svg width="54" height="78" viewBox="0 0 54 78" fill="none" xmlns="http://www.w3.org/2000/svg">
<path d="M44.7132 42.4482L46.2951 36.1203C46.2951 36.1203 50.25 16.7409 51.832 10.0178C53.414 3.29462 43.3569 0.130253 41.1537 7.64482C38.9506 15.1594 34.8259 30.5834 34.8259 30.5834C34.8259 30.5834 30.008 11.2041 28.498 5.66738C26.9879 0.130681 17.0287 0.921304 18.2152 7.64482C19.4017 14.3683 21.7735 27.0242 21.7735 27.0242L22.5644 31.7701M44.7132 42.4482C43.5255 42.0529 35.4839 40.2072 31.6608 38.8889C25.7284 36.8433 21.378 35.7249 18.6095 36.1203C12.2816 37.024 12.6771 43.2393 14.6546 45.6123M44.7132 42.4482C46.2951 44.0302 49.38 47.6687 49.0636 49.5671C46.6906 63.8049 44.7132 74.0877 27.707 75.6696C2.39433 78.0241 2.39388 51.5448 2.39433 41.2619M22.5644 31.7701L23.0566 36.1203M22.5644 31.7701C21.378 27.0242 13.0738 27.8151 13.0738 32.561C13.0738 35.4781 13.0738 35.9885 13.0738 35.7249M13.0738 35.7249C12.2828 30.5836 2 29.7926 2 36.5159L2.39433 41.2619M13.0738 35.7249L14.6546 45.6123M15.0501 49.5672C13.8636 54.7086 6.34926 55.1041 4.3718 50.7536L2.39433 41.2619M15.0501 49.5672C15.8411 52.072 20.1903 57.4772 24.9374 51.9402M15.0501 49.5672L14.6546 45.6123M24.9374 51.9402L30.8698 53.9176M24.9374 51.9402C22.1689 51.1492 15.9469 47.5898 14.6546 45.6123" stroke="#353535" stroke-width="3" stroke-linecap="round" stroke-linejoin="round"/>
</svg>

<svg width="54" height="78" fill="none" xmlns="http://www.w3.org/2000/svg"><path d="M44.713 42.448l1.582-6.328s3.955-19.38 5.537-26.102C53.414 3.295 43.357.13 41.154 7.645c-2.203 7.514-6.328 22.938-6.328 22.938s-4.818-19.379-6.328-24.916C26.988.131 17.028.921 18.215 7.645c1.187 6.723 3.558 19.38 3.558 19.38l.791 4.745m22.15 10.678c-1.188-.395-9.23-2.24-13.053-3.56-5.933-2.045-10.283-3.163-13.052-2.768-6.327.904-5.932 7.12-3.954 9.492m30.058-3.164c1.582 1.582 4.667 5.22 4.35 7.12-2.372 14.237-4.35 24.52-21.356 26.102C2.394 78.024 2.394 51.545 2.394 41.262m20.17-9.492l.493 4.35m-.493-4.35c-1.186-4.746-9.49-3.955-9.49.791v3.164m0 0C12.283 30.584 2 29.793 2 36.515l.394 4.747m10.68-5.537l1.58 9.887m.396 3.955c-1.186 5.142-8.7 5.537-10.678 1.187l-1.978-9.492m12.656 8.305c.791 2.505 5.14 7.91 9.887 2.373m-9.887-2.373l-.395-3.955m10.282 6.328l5.933 1.978m-5.933-1.978c-2.768-.79-8.99-4.35-10.282-6.328" stroke="#353535" stroke-width="3" stroke-linecap="round" stroke-linejoin="round"/></svg>
